src/icons/svg/upload.svg

<svg width="24px" height="24px" viewBox="0 0 24 24" version="1.1" xmlns="http://www.w3.org/2000/svg"
>
    <rect id="矩形" fill="#D8D8D8" opacity="0" x="0" y="0" width="24" height="24"></rect>
    <rect id="矩形备份-4" fill="#FFFFFF" opacity="0" x="1" y="1" width="22" height="22"></rect>
    <path d="M20.8888889,13.6550765 C21.5,13.6550765 22,14.1557719 22,14.767733 L22,19.2183589 C22,20.7760779 20.7777777,22 19.2222222,22 L4.77777778,22 C3.22222221,22 2,20.7760779 2,19.2183589 L2,14.767733 C2,14.1557719 2.5,13.6550765 3.11111112,13.6550765 C3.72222221,13.6550765 4.22222222,14.1557719 4.22222222,14.767733 L4.22222222,19.2183589 C4.22222224,19.5521558 4.44444446,19.7746871 4.77777778,19.7746871 L19.2222222,19.7746871 C19.5555556,19.7746871 19.7777778,19.5521558 19.7777778,19.2183589 L19.7777778,14.767733 C19.7777777,14.1557719 20.2777777,13.6550765 20.8888889,13.6550765 Z M10.8888889,2.41724617 C11.4444444,1.86091794 12.4444444,1.86091794 13,2.41724617 L16.0555556,5.47705145 C16.5,5.92211404 16.5,6.58970792 16.0555556,7.03477054 C15.8333333,7.25730181 15.5555556,7.36856745 15.2777778,7.36856745 C15,7.36856745 14.7222222,7.25730181 14.5,7.03477054 L13.1111111,5.64394992 L13.1111111,14.7121002 C13.1111111,15.3240612 12.6111111,15.8247566 12,15.8247566 C11.3888889,15.8247566 10.8888889,15.3240612 10.8888889,14.7121002 L10.8888889,5.64394992 L9.5,7.03477054 C9.05555556,7.47983309 8.33333335,7.47983309 7.8888889,6.97913768 C7.44444445,6.53407511 7.44444445,5.86648123 7.8888889,5.42141863 Z"
          id="形状结合" fill="#000000" fill-rule="nonzero"></path>
</svg>

<svg width="24" height="24" xmlns="http://www.w3.org/2000/svg"><path d="M20.889 13.655c.611 0 1.111.5 1.111 1.113v4.45A2.753 2.753 0 0 1 19.222 22H4.778A2.753 2.753 0 0 1 2 19.218v-4.45c0-.612.5-1.113 1.111-1.113s1.111.5 1.111 1.113v4.45c0 .334.222.557.556.557h14.444c.334 0 .556-.223.556-.557v-4.45c0-.612.5-1.113 1.11-1.113zm-10-11.238c.555-.556 1.555-.556 2.111 0l3.056 3.06a1.077 1.077 0 0 1 0 1.558c-.223.222-.5.334-.778.334s-.556-.112-.778-.334l-1.389-1.391v9.068c0 .612-.5 1.113-1.111 1.113s-1.111-.5-1.111-1.113V5.644L9.5 7.034a1.094 1.094 0 0 1-1.611-.055 1.077 1.077 0 0 1 0-1.558z" fill="currentColor"/></svg>
